public/images/hashed/b34674ddbcb42d5fe2acae8467f812a5.svg

<svg xmlns="http://www.w3.org/2000/svg" width="80" height="80"><defs><linearGradient id="a" x1="0%" x2="100%" y1="100%" y2="0%"><stop offset="0%" stop-color="#1B660F"/><stop offset="100%" stop-color="#6CAE3E"/></linearGradient></defs><g fill="none" fill-rule="evenodd"><path fill="url(#a)" d="M0 0h80v80H0z"/><path fill="#FFF" d="M15 35h3v-7h-3v7Zm9 0h3v-7h-3v7Zm0-12h3v-7h-3v7Zm12 6h3v-7h-3v7Zm9 0h3v-7h-3v7Zm-31 8h5a1 1 0 0 0 1-1v-3h2v3a1 1 0 0 0 1 1h5a1 1 0 0 0 1-1v-3h3a1 1 0 0 0 1-1v-5h1v3a1 1 0 0 0 1 1h5a1 1 0 0 0 1-1v-3h2v3a1 1 0 0 0 1 1h5a1 1 0 0 0 1-1v-9a1 1 0 0 0-1-1h-5a1 1 0 0 0-1 1v4h-2v-4a1 1 0 0 0-1-1h-5a1 1 0 0 0-1 1v4h-1v-5a1 1 0 0 0-1-1h-3v-4a1 1 0 0 0-1-1h-5a1 1 0 0 0-1 1v9a1 1 0 0 0 1 1h5a1 1 0 0 0 1-1v-3h2v10h-2v-4a1 1 0 0 0-1-1h-5a1 1 0 0 0-1 1v4h-2v-4a1 1 0 0 0-1-1h-5a1 1 0 0 0-1 1v9a1 1 0 0 0 1 1Zm18.251-20.161-.501-1.936a24.748 24.748 0 0 1 7.229-.769c8.896.356 16.969 5.493 21.068 13.406l-1.775.92c-3.771-7.276-11.193-12-19.373-12.328a22.947 22.947 0 0 0-6.648.707Zm25.42 33.685 1.723 1.016a24.79 24.79 0 0 1-10.984 9.952l-.842-1.814a22.806 22.806 0 0 0 10.103-9.154Zm-42.52-11.525a22.596 22.596 0 0 0 2.131 9.589l-1.813.847a24.583 24.583 0 0 1-2.318-10.433l2-.003ZM32.612 56.58a4.204 4.204 0 0 1-4.2-4.2c0-2.316 1.883-4.2 4.2-4.2 2.316 0 4.2 1.884 4.2 4.2 0 2.316-1.884 4.2-4.2 4.2Zm0-10.4a6.207 6.207 0 0 0-6.2 6.2c0 3.419 2.781 6.2 6.2 6.2s6.2-2.781 6.2-6.2-2.781-6.2-6.2-6.2Zm12 7.725-1.101-.063a1.025 1.025 0 0 0-1.032.779 9.997 9.997 0 0 1-1.306 3.153c-.26.414-.184.955.18 1.28l.822.733-2.156 2.157-.73-.818a.998.998 0 0 0-1.281-.18 10.02 10.02 0 0 1-3.157 1.308.999.999 0 0 0-.777 1.033l.062 1.093h-3.05l.063-1.095a.999.999 0 0 0-.777-1.032 10.031 10.031 0 0 1-3.156-1.31.999.999 0 0 0-1.28.181l-.731.819-2.157-2.156.82-.731a1 1 0 0 0 .179-1.28 10.02 10.02 0 0 1-1.304-3.155c-.108-.477-.56-.795-1.033-.779l-1.098.063v-3.05l1.102.063c.453.025.924-.301 1.033-.777a10.025 10.025 0 0 1 1.307-3.15 1 1 0 0 0-.179-1.28l-.827-.738 2.158-2.156.736.825a1 1 0 0 0 1.279.18 10.036 10.036 0 0 1 3.15-1.304 1 1 0 0 0 .778-1.032l-.063-1.106h3.05l-.062 1.107a1 1 0 0 0 .777 1.033c1.118.253 2.178.692 3.149 1.304a1 1 0 0 0 1.28-.18l.738-.827 2.157 2.156-.824.736c-.364.325-.44.866-.18 1.28.614.97 1.053 2.031 1.307 3.152.109.476.572.802 1.032.777l1.102-.063v3.05Zm.943-5.107-1.344.077a12.004 12.004 0 0 0-.919-2.218l1.005-.896a.998.998 0 0 0 .041-1.453l-3.654-3.654a1 1 0 0 0-1.453.041l-.899 1.009a11.961 11.961 0 0 0-2.215-.918l.076-1.349a.995.995 0 0 0-.272-.744.996.996 0 0 0-.726-.313h-5.167a.998.998 0 0 0-.998 1.057l.076 1.347c-.768.231-1.509.538-2.216.917l-.897-1.006a1.004 1.004 0 0 0-.718-.334.98.98 0 0 0-.735.293l-3.655 3.654a1 1 0 0 0 .041 1.453l1.007.898a12.006 12.006 0 0 0-.92 2.216l-1.345-.077a1.012 1.012 0 0 0-.743.271c-.2.189-.313.453-.313.728v5.166a1.002 1.002 0 0 0 1.056.999l1.34-.077c.231.77.538 1.514.919 2.222L20.926 59a1.002 1.002 0 0 0-.041 1.453l3.655 3.654a1.002 1.002 0 0 0 1.453-.042l.892-1c.709.381 1.452.689 2.221.921l-.076 1.337a.998.998 0 0 0 .998 1.057h5.167a.996.996 0 0 0 .726-.313c.19-.2.288-.469.272-.744l-.076-1.335a12.058 12.058 0 0 0 2.223-.921l.891.998a.997.997 0 0 0 .718.334.956.956 0 0 0 .735-.292l3.654-3.654A1 1 0 0 0 44.297 59l-1.003-.895c.38-.708.688-1.451.919-2.22l1.342.077a1 1 0 0 0 1.057-.999v-5.166a1 1 0 0 0-1.057-.999ZM58.6 41.214a2.124 2.124 0 0 1-2.914-.714 2.124 2.124 0 0 1 1.811-3.221c.717 0 1.42.364 1.818 1.021h.001a2.125 2.125 0 0 1-.716 2.914Zm2.426-3.951a4.128 4.128 0 0 0-5.662-1.388 4.126 4.126 0 0 0-1.389 5.661 4.124 4.124 0 0 0 5.662 1.389 4.126 4.126 0 0 0 1.389-5.661v-.001Zm3.466 5.913-2.376-.345a1.004 1.004 0 0 0-.767.208l-1.136.906a1 1 0 0 0-.375.719l-.151 2.409-3.599.191-.413-2.403a1.003 1.003 0 0 0-.44-.669l-1.186-.77a1.011 1.011 0 0 0-.794-.129l-2.357.606-1.295-3.363 2.139-1.125a1 1 0 0 0 .502-.634l.365-1.406a1 1 0 0 0-.124-.787l-1.286-2.025 2.799-2.271 1.735 1.691c.199.193.477.294.746.283l1.425-.069a.998.998 0 0 0 .722-.362l1.548-1.873 3.026 1.96-1.076 2.182a1.003 1.003 0 0 0-.035.805l.52 1.332a1 1 0 0 0 .563.567l2.25.89-.93 3.482Zm2.495-5.013-2.673-1.058-.201-.516 1.273-2.585a.999.999 0 0 0-.352-1.281l-4.519-2.927a.999.999 0 0 0-1.314.202l-1.834 2.218-.549.027-2.062-2.009a1 1 0 0 0-1.328-.06l-4.18 3.393a.998.998 0 0 0-.214 1.313l1.53 2.409-.145.558-2.535 1.332a1.002 1.002 0 0 0-.467 1.245l1.934 5.025a1 1 0 0 0 1.183.609l2.795-.719.45.292.489 2.849a1 1 0 0 0 .984.83l.054-.001 5.376-.286a1 1 0 0 0 .945-.936l.18-2.855.45-.359 2.827.411c.496.072.979-.242 1.11-.732l1.39-5.201a.998.998 0 0 0-.597-1.188Z"/></g></svg>

<?xml version="1.0" encoding="UTF-8"?>
<svg width="80px" height="80px" viewBox="0 0 80 80" version="1.1" xmlns="http://www.w3.org/2000/svg" xmlns:xlink="http://www.w3.org/1999/xlink">
    <!-- Generator: Sketch 64 (93537) - https://sketch.com -->
    <title>Icon-Architecture/64/Arch_AWS-IoT-Things-Graph_64</title>
    <desc>Created with Sketch.</desc>
    <defs>
        <linearGradient x1="0%" y1="100%" x2="100%" y2="0%" id="linearGradient-1">
            <stop stop-color="#1B660F" offset="0%"></stop>
            <stop stop-color="#6CAE3E" offset="100%"></stop>
        </linearGradient>
    </defs>
    <g id="Icon-Architecture/64/Arch_AWS-IoT-Things-Graph_64" stroke="none" stroke-width="1" fill="none" fill-rule="evenodd">
        <g id="Icon-Architecture-BG/64/Internet-of-Things" fill="url(#linearGradient-1)">
            <rect id="Rectangle" x="0" y="0" width="80" height="80"></rect>
        </g>
        <path d="M15,35 L18,35 L18,28 L15,28 L15,35 Z M24,35 L27,35 L27,28 L24,28 L24,35 Z M24,23 L27,23 L27,16 L24,16 L24,23 Z M36,29 L39,29 L39,22 L36,22 L36,29 Z M45,29 L48,29 L48,22 L45,22 L45,29 Z M14,37 L19,37 C19.553,37 20,36.552 20,36 L20,33 L22,33 L22,36 C22,36.552 22.448,37 23,37 L28,37 C28.553,37 29,36.552 29,36 L29,33 L32,33 C32.553,33 33,32.552 33,32 L33,27 L34,27 L34,30 C34,30.552 34.448,31 35,31 L40,31 C40.553,31 41,30.552 41,30 L41,27 L43,27 L43,30 C43,30.552 43.448,31 44,31 L49,31 C49.553,31 50,30.552 50,30 L50,21 C50,20.448 49.553,20 49,20 L44,20 C43.448,20 43,20.448 43,21 L43,25 L41,25 L41,21 C41,20.448 40.553,20 40,20 L35,20 C34.448,20 34,20.448 34,21 L34,25 L33,25 L33,20 C33,19.448 32.553,19 32,19 L29,19 L29,15 C29,14.448 28.553,14 28,14 L23,14 C22.448,14 22,14.448 22,15 L22,24 C22,24.552 22.448,25 23,25 L28,25 C28.553,25 29,24.552 29,24 L29,21 L31,21 L31,31 L29,31 L29,27 C29,26.448 28.553,26 28,26 L23,26 C22.448,26 22,26.448 22,27 L22,31 L20,31 L20,27 C20,26.448 19.553,26 19,26 L14,26 C13.448,26 13,26.448 13,27 L13,36 C13,36.552 13.448,37 14,37 L14,37 Z M32.251,16.839 L31.75,14.903 C34.099,14.295 36.529,14.033 38.979,14.134 C47.875,14.49 55.948,19.627 60.047,27.54 L58.272,28.46 C54.501,21.184 47.079,16.46 38.899,16.132 C36.642,16.045 34.41,16.28 32.251,16.839 L32.251,16.839 Z M57.671,50.524 L59.394,51.54 C56.816,55.916 53.017,59.357 48.41,61.492 L47.568,59.678 C51.806,57.714 55.299,54.549 57.671,50.524 L57.671,50.524 Z M15.151,38.999 C15.157,42.346 15.874,45.573 17.282,48.588 L15.469,49.435 C13.937,46.153 13.157,42.643 13.151,39.002 L15.151,38.999 Z M32.612,56.58 C30.295,56.58 28.412,54.696 28.412,52.38 C28.412,50.064 30.295,48.18 32.612,48.18 C34.928,48.18 36.812,50.064 36.812,52.38 C36.812,54.696 34.928,56.58 32.612,56.58 L32.612,56.58 Z M32.612,46.18 C29.193,46.18 26.412,48.961 26.412,52.38 C26.412,55.799 29.193,58.58 32.612,58.58 C36.031,58.58 38.812,55.799 38.812,52.38 C38.812,48.961 36.031,46.18 32.612,46.18 L32.612,46.18 Z M44.612,53.905 L43.511,53.842 C43.05,53.819 42.587,54.143 42.479,54.621 C42.227,55.74 41.788,56.801 41.173,57.774 C40.913,58.188 40.989,58.729 41.353,59.054 L42.175,59.787 L40.019,61.944 L39.289,61.126 C38.962,60.759 38.419,60.684 38.008,60.946 C37.036,61.56 35.974,62.001 34.851,62.254 C34.375,62.362 34.045,62.798 34.074,63.287 L34.136,64.38 L31.086,64.38 L31.149,63.285 C31.177,62.797 30.848,62.36 30.372,62.253 C29.252,62 28.191,61.559 27.216,60.943 C26.803,60.683 26.261,60.757 25.936,61.124 L25.205,61.943 L23.048,59.787 L23.868,59.056 C24.232,58.731 24.308,58.189 24.047,57.776 C23.434,56.804 22.995,55.742 22.743,54.621 C22.635,54.144 22.183,53.826 21.71,53.842 L20.612,53.905 L20.612,50.855 L21.714,50.918 C22.167,50.943 22.638,50.617 22.747,50.141 C23,49.024 23.439,47.964 24.054,46.991 C24.315,46.577 24.239,46.036 23.875,45.711 L23.048,44.973 L25.206,42.817 L25.942,43.642 C26.267,44.006 26.81,44.082 27.221,43.822 C28.193,43.209 29.252,42.771 30.371,42.518 C30.848,42.41 31.177,41.974 31.149,41.486 L31.086,40.38 L34.136,40.38 L34.074,41.487 C34.045,41.975 34.375,42.412 34.851,42.52 C35.969,42.773 37.029,43.212 38,43.824 C38.413,44.084 38.954,44.01 39.28,43.644 L40.018,42.817 L42.175,44.973 L41.351,45.709 C40.987,46.034 40.911,46.575 41.171,46.989 C41.785,47.959 42.224,49.02 42.478,50.141 C42.587,50.617 43.05,50.943 43.51,50.918 L44.612,50.855 L44.612,53.905 Z M45.555,48.798 L44.211,48.875 C43.979,48.106 43.672,47.364 43.292,46.657 L44.297,45.761 C44.502,45.578 44.624,45.318 44.631,45.043 C44.639,44.768 44.533,44.502 44.338,44.308 L40.684,40.654 C40.49,40.459 40.22,40.349 39.949,40.361 C39.673,40.369 39.414,40.49 39.231,40.695 L38.332,41.704 C37.625,41.324 36.884,41.017 36.117,40.786 L36.193,39.437 C36.209,39.162 36.111,38.893 35.921,38.693 C35.733,38.493 35.47,38.38 35.195,38.38 L30.028,38.38 C29.752,38.38 29.49,38.493 29.301,38.693 C29.112,38.893 29.014,39.162 29.03,39.437 L29.106,40.784 C28.338,41.015 27.597,41.322 26.89,41.701 L25.993,40.695 C25.809,40.49 25.55,40.369 25.275,40.361 C24.994,40.351 24.735,40.459 24.54,40.654 L20.885,44.308 C20.691,44.502 20.584,44.768 20.592,45.043 C20.6,45.318 20.721,45.578 20.926,45.761 L21.933,46.659 C21.552,47.367 21.245,48.108 21.013,48.875 L19.668,48.798 C19.391,48.786 19.124,48.881 18.925,49.069 C18.725,49.258 18.612,49.522 18.612,49.797 L18.612,54.963 C18.612,55.238 18.725,55.502 18.925,55.691 C19.124,55.88 19.392,55.975 19.668,55.962 L21.008,55.885 C21.239,56.655 21.546,57.399 21.927,58.107 L20.926,59 C20.721,59.183 20.6,59.443 20.592,59.717 C20.584,59.992 20.691,60.258 20.885,60.453 L24.54,64.107 C24.734,64.302 25.018,64.415 25.275,64.399 C25.55,64.391 25.81,64.27 25.993,64.065 L26.885,63.065 C27.594,63.446 28.337,63.754 29.106,63.986 L29.03,65.323 C29.014,65.598 29.112,65.867 29.301,66.067 C29.49,66.267 29.752,66.38 30.028,66.38 L35.195,66.38 C35.47,66.38 35.733,66.267 35.921,66.067 C36.111,65.867 36.209,65.598 36.193,65.323 L36.117,63.988 C36.888,63.756 37.631,63.447 38.34,63.067 L39.231,64.065 C39.414,64.271 39.673,64.391 39.949,64.399 C40.223,64.418 40.49,64.302 40.684,64.107 L44.338,60.453 C44.533,60.258 44.639,59.992 44.631,59.717 C44.624,59.442 44.502,59.183 44.297,59 L43.294,58.105 C43.674,57.397 43.982,56.654 44.213,55.885 L45.555,55.962 C45.828,55.974 46.099,55.879 46.298,55.691 C46.499,55.502 46.612,55.238 46.612,54.963 L46.612,49.797 C46.612,49.522 46.499,49.258 46.298,49.069 C46.099,48.881 45.829,48.787 45.555,48.798 L45.555,48.798 Z M58.6,41.214 C57.601,41.82 56.292,41.501 55.686,40.5 C55.08,39.499 55.4,38.192 56.401,37.586 C56.744,37.378 57.122,37.279 57.497,37.279 C58.214,37.279 58.917,37.643 59.315,38.3 L59.316,38.3 C59.921,39.301 59.601,40.609 58.6,41.214 L58.6,41.214 Z M61.026,37.263 C59.847,35.321 57.309,34.696 55.364,35.875 C53.42,37.053 52.797,39.592 53.975,41.536 C54.75,42.814 56.112,43.521 57.507,43.521 C58.235,43.521 58.971,43.329 59.637,42.925 C61.581,41.747 62.204,39.207 61.026,37.264 L61.026,37.263 Z M64.492,43.176 L62.116,42.831 C61.843,42.792 61.565,42.867 61.349,43.039 L60.213,43.945 C59.992,44.121 59.856,44.382 59.838,44.664 L59.687,47.073 L56.088,47.264 L55.675,44.861 C55.628,44.587 55.468,44.344 55.235,44.192 L54.049,43.422 C53.885,43.317 53.696,43.261 53.504,43.261 C53.421,43.261 53.337,43.272 53.255,43.293 L50.898,43.899 L49.603,40.536 L51.742,39.411 C51.991,39.28 52.173,39.05 52.244,38.777 L52.609,37.371 C52.678,37.103 52.634,36.818 52.485,36.584 L51.199,34.559 L53.998,32.288 L55.733,33.979 C55.932,34.172 56.21,34.273 56.479,34.262 L57.904,34.193 C58.185,34.179 58.448,34.048 58.626,33.831 L60.174,31.958 L63.2,33.918 L62.124,36.1 C62,36.352 61.988,36.644 62.089,36.905 L62.609,38.237 C62.709,38.496 62.915,38.702 63.172,38.804 L65.422,39.694 L64.492,43.176 Z M66.987,38.163 L64.314,37.105 L64.113,36.589 L65.386,34.004 C65.611,33.549 65.459,32.999 65.034,32.723 L60.515,29.796 C60.085,29.519 59.523,29.608 59.201,29.998 L57.367,32.216 L56.818,32.243 L54.756,30.234 C54.393,29.88 53.823,29.855 53.428,30.174 L49.248,33.567 C48.853,33.887 48.761,34.451 49.034,34.88 L50.564,37.289 L50.419,37.847 L47.884,39.179 C47.436,39.416 47.235,39.95 47.417,40.424 L49.351,45.449 C49.535,45.922 50.041,46.186 50.534,46.058 L53.329,45.339 L53.779,45.631 L54.268,48.48 C54.351,48.962 54.769,49.31 55.252,49.31 C55.271,49.31 55.289,49.31 55.306,49.309 L60.682,49.023 C61.189,48.996 61.595,48.593 61.627,48.087 L61.807,45.232 L62.257,44.873 L65.084,45.284 C65.58,45.356 66.063,45.042 66.194,44.552 L67.584,39.351 C67.716,38.86 67.459,38.349 66.987,38.163 L66.987,38.163 Z" id="AWS-IoT-Things-Graph_Icon_64_Squid" fill="#FFFFFF"></path>
    </g>
</svg>
